kyobo/mok/images/ico/ico_buble.svg

<svg id="icon" xmlns="http://www.w3.org/2000/svg" width="16" height="15.999" viewBox="0 0 16 15.999">
  <g id="comment" transform="translate(-2.999 -3)" fill="none">
    <path d="M3.517,18.993a.444.444,0,0,1-.477-.623l1.325-2.9a7.988,7.988,0,1,1,3.346,2.823Z" stroke="none"/>
    <path d="M 10.99924945831299 17.99869728088379 C 14.85869884490967 17.99869728088379 17.99858856201172 14.85879707336426 17.99858856201172 10.99934673309326 C 17.99858856201172 7.139896392822266 14.85869884490967 3.999996662139893 10.99924945831299 3.999996662139893 C 7.139799118041992 3.999996662139893 3.99989914894104 7.139896392822266 3.99989914894104 10.99934673309326 C 3.99989914894104 12.40158653259277 4.412739276885986 13.75409698486328 5.193789005279541 14.91066646575928 L 5.50779914855957 15.37564659118652 L 4.384160041809082 17.83439254760742 L 7.846019268035889 17.25741577148438 L 8.122579574584961 17.38227653503418 C 9.028569221496582 17.79130744934082 9.996418952941895 17.99869728088379 10.99924945831299 17.99869728088379 M 3.441583156585693 18.99898910522461 C 3.128211259841919 18.99898910522461 2.902921438217163 18.66976356506348 3.040109157562256 18.36956596374512 L 4.365059375762939 15.47031688690186 C 3.481129169464111 14.16140651702881 2.99989914894104 12.61609649658203 2.99989914894104 10.99934673309326 C 2.99989914894104 6.581426620483398 6.581329345703125 2.999996662139893 10.99924945831299 2.999996662139893 C 15.41715908050537 2.999996662139893 18.99858856201172 6.581426620483398 18.99858856201172 10.99934673309326 C 18.99858856201172 15.41726684570312 15.41715908050537 18.99869728088379 10.99924945831299 18.99869728088379 C 9.850479125976562 18.99869728088379 8.735309600830078 18.75609588623047 7.711099147796631 18.29369735717773 L 3.517369270324707 18.99264717102051 C 3.491662740707397 18.9969310760498 3.466326951980591 18.99898910522461 3.441583156585693 18.99898910522461 Z" stroke="none" fill="#000"/>
  </g>
  <path id="합치기_1" data-name="합치기 1" d="M6,1A1,1,0,1,1,7,2,1,1,0,0,1,6,1ZM3,1A1,1,0,1,1,4,2,1,1,0,0,1,3,1ZM0,1A1,1,0,1,1,1,2,1,1,0,0,1,0,1Z" transform="translate(4 7)" fill="#474c98"/>
</svg>

<svg xmlns="http://www.w3.org/2000/svg" width="18" height="18" viewBox="0 0 18 18">
    <g data-name="그룹 1909">
        <path data-name="사각형 3519" style="fill:none" d="M0 0h18v18H0z"/>
        <g style="fill:none">
            <path d="M3.517 18.993a.444.444 0 0 1-.477-.623l1.325-2.9a7.988 7.988 0 1 1 3.346 2.823z" style="stroke:none" transform="translate(-1.999 -2)"/>
            <path d="M11 17.999c3.859 0 6.999-3.14 6.999-7S14.859 4 10.999 4s-7 3.14-7 7c0 1.402.414 2.754 1.195 3.91l.314.466-1.124 2.458 3.462-.577.277.125a6.944 6.944 0 0 0 2.876.617m-7.557 1a.445.445 0 0 1-.402-.63l1.325-2.899a8 8 0 1 1 3.346 2.823l-4.194.7a.461.461 0 0 1-.075.006z" style="fill:#000;stroke:none" transform="translate(-1.999 -2)"/>
        </g>
        <path data-name="합치기 1" d="M6 1a1 1 0 1 1 1 1 1 1 0 0 1-1-1zM3 1a1 1 0 1 1 1 1 1 1 0 0 1-1-1zM0 1a1 1 0 1 1 1 1 1 1 0 0 1-1-1z" transform="translate(5 8)" style="fill:#da2128"/>
    </g>
</svg>
